X:18
T:Flowing Tide
M:C|
L:1/8
S:Darcie's TrTuneSbk Vo.2 (1998) p. 25
Z: Wosika
K:G Major
|: D2| "G"G2 GB dGBd| GBdg bgag| "C"(3efg dg "G"Bdge| dBAG "D"edBA|
"G"G2GB dGBd| GBdg bgag| "C"(3efg dg "G"Bdge| "D"dBAB "G"G2 ::
D2| "G"G2GB "D"AGED| "C"gfge "G"dBGB| "C"c2 (3BcB (3ABA GB| "Amin"(3cBA BG "D"AGEG|
"G"DGBd B3 d| "C"(3cBA BG "D"AGEG| "G"DGBd gdBG|"D"DAFA "G"G2:|
% Written by ABC2Win  2.2.124 BETA on 3/11/2011
% Written by ABC2Win  2.2.124 BETA on 10/21/2011
